X: 2192
T: SHE'S SWEETEST WHEN SHE SMILES
R: Reel
B: Kerr's v.2 p.22 #193
Z: 2016 John Chambers <jc:trillian.mit.edu>
M: C
L: 1/8
K: F
A |\
FccA GFDG | FccA FffA |\
FccA GFDG | FCDE F3 :|
|: c |\
fcfa gfde | fcfa fcfa |\
fcfa gfde | fcag [1 fdc :|[2 f3 |]

%%sep 1 1 500
%%sep 1 1 500

